image/envelope.svg

<svg width="15" height="15" viewBox="0 0 15 15" fill="none" xmlns="http://www.w3.org/2000/svg">
<g clip-path="url(#clip0_6_144)">
<path d="M13.1688 1.79224H1.83426C0.822471 1.79224 0 2.61471 0 3.6265V11.3732C0 12.385 0.822471 13.2075 1.83426 13.2075H13.1657C14.1775 13.2075 15 12.385 15 11.3732V3.6296C15.0031 2.61781 14.1806 1.79224 13.1688 1.79224ZM14.1651 11.3732C14.1651 11.9226 13.7182 12.3695 13.1688 12.3695H1.83426C1.28492 12.3695 0.837989 11.9226 0.837989 11.3732V3.6296C0.837989 3.08026 1.28492 2.63333 1.83426 2.63333H13.1657C13.7151 2.63333 14.162 3.08026 14.162 3.6296V11.3732H14.1651Z" fill="#999999"/>
<path d="M9.46007 7.40371L13.1286 4.11383C13.2993 3.95864 13.3148 3.69483 13.1596 3.52103C13.0044 3.35032 12.7406 3.33481 12.5668 3.48999L7.50786 8.03065L6.5209 7.14921C6.51779 7.1461 6.51469 7.143 6.51469 7.1399C6.49297 7.11817 6.47124 7.09955 6.44641 7.08093L2.43027 3.48689C2.25647 3.3317 1.99265 3.34722 1.83747 3.52103C1.68229 3.69483 1.69781 3.95864 1.87161 4.11383L5.58359 7.43164L1.88713 10.8922C1.71953 11.0505 1.71022 11.3143 1.86851 11.485C1.95231 11.5719 2.06404 11.6185 2.17577 11.6185C2.27819 11.6185 2.38061 11.5812 2.46131 11.5067L6.21364 7.99651L7.23164 8.90588C7.31233 8.97726 7.41165 9.0114 7.51097 9.0114C7.61028 9.0114 7.7127 8.97416 7.7903 8.90278L8.83623 7.96547L12.5668 11.5099C12.6475 11.5874 12.7531 11.6247 12.8555 11.6247C12.9672 11.6247 13.0758 11.5812 13.1596 11.4943C13.3179 11.3267 13.3117 11.0598 13.1441 10.9015L9.46007 7.40371Z" fill="#999999"/>
</g>
<defs>
<clipPath id="clip0_6_144">
<rect width="15" height="15" fill="white"/>
</clipPath>
</defs>
</svg>

<svg width="15" height="15" fill="none" xmlns="http://www.w3.org/2000/svg"><g clip-path="url(#a)" fill="#999"><path d="M13.169 1.792H1.834A1.836 1.836 0 0 0 0 3.627v7.746c0 1.012.822 1.835 1.834 1.835h11.332A1.836 1.836 0 0 0 15 11.372V3.63a1.834 1.834 0 0 0-1.831-1.838Zm.996 9.581c0 .55-.447.997-.996.997H1.834a.997.997 0 0 1-.996-.997V3.63c0-.55.447-.997.996-.997h11.332c.55 0 .996.447.996.997v7.743h.003Z"/><path d="m9.46 7.404 3.669-3.29a.421.421 0 0 0 .03-.593.421.421 0 0 0-.592-.031l-5.06 4.54-.986-.88c-.003-.004-.006-.007-.006-.01a.62.62 0 0 0-.069-.06L2.43 3.488a.418.418 0 0 0-.593.034.418.418 0 0 0 .035.593l3.712 3.318-3.697 3.46a.42.42 0 0 0 .574.615l3.753-3.51 1.018.909a.419.419 0 0 0 .558-.003l1.046-.938 3.73 3.545a.417.417 0 0 0 .594-.016.42.42 0 0 0-.016-.592L9.46 7.404Z"/></g><defs><clipPath id="a"><path fill="#fff" d="M0 0h15v15H0z"/></clipPath></defs></svg>
